assets/potential-user-white.svg

<svg xmlns="http://www.w3.org/2000/svg" fill="none" viewBox="0 0 146 146">
  <path fill="#fff" stroke="#3D58F0" d="m78.9046 53.3182-.8536.8536H85.7466c5.713 0 10.359-4.646 10.359-10.3591v-9.2553c0-.3481-.2813-.6348-.6337-.6348h-9.2564c-5.7119 0-10.3591 4.6471-10.3591 10.3591v7.4504l.8536-.8535 8.0512-8.0512c.6402-.6402 1.677-.6402 2.3171 0 .6403.6403.64 1.678.0003 2.3168l-.0003.0003-8.1737 8.1737Zm7.3109-22.6729h9.2564c2.1565 0 3.911 1.7553 3.911 3.9121v9.2553c0 7.5189-6.1175 13.6364-13.6363 13.6364h-9.2554c-2.1566 0-3.9121-1.7555-3.9121-3.9121v-9.2553c0-7.5189 6.1186-13.6364 13.6364-13.6364ZM125.322 72.4553c0-.9057.733-1.6386 1.639-1.6386.905 0 1.639.7331 1.639 1.6386v30.1757c0 .905-.734 1.638-1.639 1.638-.906 0-1.639-.733-1.639-1.638V72.4553Z"/>
  <path fill="#fff" stroke="#3D58F0" d="M124.823 121.572h.5v-9.195c0-.905.733-1.638 1.638-1.638.905 0 1.639.733 1.639 1.638v21.227c0 6.559-5.338 11.896-11.896 11.896H55.2579c-5.9369 0-10.8735-4.373-11.7553-10.067l-.0855-.552-.539.146c-.8804.237-1.7834.414-2.708.518l-.4441.05v8.125c0 .904-.7341 1.639-1.6387 1.639-.9046 0-1.6387-.735-1.6387-1.639v-9.695c0-.906.7339-1.639 1.6387-1.639 8.3921 0 15.2134-6.877 15.2134-15.323V96.7114c0-.9047.7331-1.6386 1.6387-1.6386h6.3982c4.4365 0 8.0443-3.6079 8.0443-8.0444v-2.8627c0-.6694-.5435-1.2129-1.2128-1.2129H49.6072c-5.4491 0-9.8812 4.4321-9.8812 9.8812v14.835c0 .904-.7341 1.638-1.6387 1.638-.9046 0-1.6387-.734-1.6387-1.638V92.834c0-4.8918 2.6858-9.1677 6.6617-11.4353l.2522-.1439V62.8504h-6.9839c-8.5423 0-15.4919 6.9483-15.4919 15.4907v65.3779c0 .904-.7341 1.638-1.6387 1.638-.9045 0-1.6386-.734-1.6386-1.638V78.3411c0-10.3481 8.4199-18.7681 18.7692-18.7681h6.9839V40.2327c0-.9056.734-1.6387 1.6387-1.6387.9048 0 1.6387.7331 1.6387 1.6387v39.7701l.5903-.1084c.7727-.1418 1.5656-.219 2.377-.219h7.581v-4.0967c0-2.4752 2.015-4.4903 4.4902-4.4903h48.6046c2.475 0 4.49 2.0151 4.49 4.4903v7.0231c0 2.4751-2.015 4.4902-4.49 4.4902H72.6677l-.0223.4766a11.2172 11.2172 0 0 1-.5599 3.0115l-.2182.6575H106.983c2.475 0 4.49 2.0151 4.49 4.4903v7.0231c0 2.475-2.015 4.49-4.49 4.49H64.9789c-2.4752 0-4.4903-2.015-4.4903-4.49v-4.4009H56.578v18.7119c0 1.339-.1463 2.645-.4156 3.906l-.1291.604h68.7897ZM60.4655 79.1754v.5h7.7036c2.212 0 4.0546 1.612 4.4195 3.7244l.0717.4149h37.6227c.669 0 1.213-.5436 1.213-1.2129v-7.0242c0-.6678-.543-1.2129-1.213-1.2129H61.6784c-.6682 0-1.2129.5446-1.2129 1.2129v3.5978Zm9.5793 15.3396h-.2196l-.1486.1618c-1.4646 1.5948-3.3766 2.769-5.5346 3.3213l-.376.0963v4.6566c0 .669.5435 1.213 1.2129 1.213h42.0041c.669 0 1.212-.544 1.212-1.213v-7.0231c0-.6694-.543-1.2129-1.212-1.2129H70.0448ZM46.905 133.402l-.2681.147.0088.306c.1336 4.637 3.9441 8.368 8.6122 8.368h61.4461c4.752 0 8.619-3.867 8.618-8.619v-8.754H54.8768l-.1363.283c-1.6891 3.51-4.4416 6.408-7.8355 8.269ZM47.1396 22.1465h-.5v8.3396c0 .9055-.7339 1.6387-1.6386 1.6387-.9057 0-1.6387-.733-1.6387-1.6387V12.3965C43.3623 5.8367 48.699.5 55.2577.5h61.4453c6.559 0 11.897 5.3367 11.897 11.8965v50.3123c0 .9055-.734 1.6386-1.639 1.6386-.906 0-1.639-.7329-1.639-1.6386V22.1465H47.1396Zm-.5-3.7773v.5h78.6824v-6.4727c0-4.7529-3.866-8.6192-8.619-8.6192H55.2577c-4.753 0-8.6181 3.8664-8.6181 8.6192v5.9727Z"/>
  <path fill="#fff" stroke="#3D58F0" d="M79.4912 133.455c0-3.49 2.8405-6.33 6.3304-6.33s6.3304 2.84 6.3304 6.33c0 3.491-2.8404 6.331-6.3304 6.331s-6.3304-2.84-6.3304-6.331Zm3.2774 0c0 1.684 1.3689 3.053 3.053 3.053s3.053-1.369 3.053-3.053-1.3689-3.053-3.053-3.053-3.053 1.369-3.053 3.053ZM81.334 10.7656h8.3386c.9046 0 1.6386.7341 1.6386 1.6387 0 .9046-.734 1.6387-1.6386 1.6387H81.334c-.9055 0-1.6387-.734-1.6387-1.6387 0-.9048.7332-1.6387 1.6387-1.6387ZM98.8151 10.7789h-.0001l-2.5631-.0267H96.2304c-.8964 0-1.6281.7226-1.6375 1.6227l4.2222-1.596Zm0 0c.9047.0094 1.6309.7502 1.6219 1.6558l-1.6219-1.6558Zm-2.6006 3.2507 2.5638.0267h.0197c.8969 0 1.629-.7231 1.639-1.6216l-4.2225 1.5949Zm0 0c-.9058-.0094-1.631-.7502-1.6216-1.6547l1.6216 1.6547ZM71.3526 12.426c-.0052-.9081.728-1.655 1.6299-1.6604.9109-.0032 1.6416.7159 1.6474 1.6157v.0281c.0051.9037-.7235 1.6411-1.629 1.647h-.0097c-.9011 0-1.6335-.7279-1.6386-1.6304Zm0 0-.5.0028m.5-.0028-.5.0028m0 0c.0067 1.1774.9624 2.1276 2.1386 2.1276h.0112l2.1275-2.1766c-.0067-1.1807-.9668-2.1186-2.1498-2.1142-1.1818.0067-2.1342.9825-2.1275 2.1632ZM65.4463 67.3103h-5.7666c-.9046 0-1.6387-.7341-1.6387-1.6387 0-.9055.7339-1.6386 1.6387-1.6386h5.7666c.9048 0 1.6387.7331 1.6387 1.6386 0 .9046-.7341 1.6387-1.6387 1.6387ZM100.235 67.3103c-.9052 0-1.6383-.7339-1.6383-1.6387 0-.9057.733-1.6386 1.6383-1.6386h12.641c.905 0 1.638.7331 1.638 1.6386 0 .9046-.734 1.6387-1.638 1.6387h-12.641Z"/>
</svg>

<svg width="146" height="146" viewBox="0 0 146 146" fill="none" xmlns="http://www.w3.org/2000/svg">
<g id="login 1">
<path id="Vector" d="M78.9046 53.3182L78.051 54.1718H79.2581H85.7466C91.4596 54.1718 96.1056 49.5258 96.1056 43.8127V34.5574C96.1056 34.2093 95.8243 33.9226 95.4719 33.9226H86.2155C80.5036 33.9226 75.8564 38.5697 75.8564 44.2817V50.525V51.7321L76.71 50.8786L84.7612 42.8274C85.4014 42.1872 86.4382 42.1872 87.0783 42.8274C87.7186 43.4677 87.7183 44.5054 87.0786 45.1442L87.0783 45.1445L78.9046 53.3182ZM86.2155 30.6453H95.4719C97.6284 30.6453 99.3829 32.4006 99.3829 34.5574V43.8127C99.3829 51.3316 93.2654 57.4491 85.7466 57.4491H76.4912C74.3346 57.4491 72.5791 55.6936 72.5791 53.537V44.2817C72.5791 36.7628 78.6977 30.6453 86.2155 30.6453Z" fill="#ffffff" stroke="white"/>
<path id="Vector_2" d="M125.322 72.4553C125.322 71.5496 126.055 70.8167 126.961 70.8167C127.866 70.8167 128.6 71.5498 128.6 72.4553V102.631C128.6 103.536 127.866 104.269 126.961 104.269C126.055 104.269 125.322 103.536 125.322 102.631V72.4553Z" fill="#ffffff" stroke="white"/>
<path id="Vector_3" d="M124.823 121.572H125.323V121.072V112.377C125.323 111.472 126.056 110.739 126.961 110.739C127.866 110.739 128.6 111.472 128.6 112.377V133.604C128.6 140.163 123.262 145.5 116.704 145.5H55.2579C49.321 145.5 44.3844 141.127 43.5026 135.433L43.4171 134.881L42.8781 135.027C41.9977 135.264 41.0947 135.441 40.1701 135.545L39.726 135.595V136.042V143.72C39.726 144.624 38.9919 145.359 38.0873 145.359C37.1827 145.359 36.4486 144.624 36.4486 143.72V134.025C36.4486 133.119 37.1825 132.386 38.0873 132.386C46.4794 132.386 53.3007 125.509 53.3007 117.063V96.7114C53.3007 95.8067 54.0338 95.0728 54.9394 95.0728H61.3376C65.7741 95.0728 69.3819 91.4649 69.3819 87.0284V84.1657C69.3819 83.4963 68.8384 82.9528 68.1691 82.9528H49.6072C44.1581 82.9528 39.726 87.3849 39.726 92.834V107.669C39.726 108.573 38.9919 109.307 38.0873 109.307C37.1827 109.307 36.4486 108.573 36.4486 107.669V92.834C36.4486 87.9422 39.1344 83.6663 43.1103 81.3987L43.3625 81.2548V80.9643V63.3504V62.8504H42.8625H36.3786C27.8363 62.8504 20.8867 69.7987 20.8867 78.3411V143.719C20.8867 144.623 20.1526 145.357 19.248 145.357C18.3435 145.357 17.6094 144.623 17.6094 143.719V78.3411C17.6094 67.993 26.0293 59.573 36.3786 59.573H42.8625H43.3625V59.073V40.2327C43.3625 39.3271 44.0965 38.594 45.0012 38.594C45.906 38.594 46.6399 39.3271 46.6399 40.2327V79.4027V80.0028L47.2302 79.8944C48.0029 79.7526 48.7958 79.6754 49.6072 79.6754H56.6882H57.1882V79.1754V75.5787C57.1882 73.1035 59.2032 71.0884 61.6784 71.0884H110.283C112.758 71.0884 114.773 73.1035 114.773 75.5787V82.6018C114.773 85.0769 112.758 87.092 110.283 87.092H73.1448H72.6677L72.6454 87.5686C72.5963 88.6157 72.4023 89.6255 72.0855 90.5801L71.8673 91.2376H72.56H106.983C109.458 91.2376 111.473 93.2527 111.473 95.7279V102.751C111.473 105.226 109.458 107.241 106.983 107.241H64.9789C62.5037 107.241 60.4886 105.226 60.4886 102.751V98.8501V98.3501H59.9886H57.078H56.578V98.8501V117.062C56.578 118.401 56.4317 119.707 56.1624 120.968L56.0333 121.572H56.6514H124.823ZM60.4655 79.1754V79.6754H60.9655H68.1691C70.3811 79.6754 72.2237 81.2874 72.5886 83.3998L72.6603 83.8147H73.0813H110.283C110.952 83.8147 111.496 83.2711 111.496 82.6018V75.5776C111.496 74.9098 110.953 74.3647 110.283 74.3647H61.6784C61.0102 74.3647 60.4655 74.9093 60.4655 75.5776V79.1754ZM70.0448 94.515H69.8252L69.6766 94.6768C68.212 96.2716 66.3 97.4458 64.142 97.9981L63.766 98.0944V98.4825V102.751C63.766 103.42 64.3095 103.964 64.9789 103.964H106.983C107.652 103.964 108.195 103.42 108.195 102.751V95.7279C108.195 95.0585 107.652 94.515 106.983 94.515H70.0448ZM46.905 133.402L46.6369 133.549L46.6457 133.855C46.7793 138.492 50.5898 142.223 55.2579 142.223H116.704C121.456 142.223 125.323 138.356 125.322 133.604C125.322 133.603 125.322 133.603 125.322 133.603V125.35V124.85H124.822H55.1911H54.8768L54.7405 125.133C53.0514 128.643 50.2989 131.541 46.905 133.402Z" fill="#ffffff" stroke="white"/>
<path id="Vector_4" d="M47.1396 22.1465H46.6396V22.6465V30.4861C46.6396 31.3916 45.9057 32.1248 45.001 32.1248C44.0953 32.1248 43.3623 31.3918 43.3623 30.4861V12.3965C43.3623 5.83666 48.699 0.5 55.2577 0.5H116.703C123.262 0.5 128.6 5.83672 128.6 12.3965V62.7088C128.6 63.6143 127.866 64.3474 126.961 64.3474C126.055 64.3474 125.322 63.6145 125.322 62.7088V22.6465V22.1465H124.822H47.1396ZM46.6396 18.3692V18.8692H47.1396H124.822H125.322V18.3692V12.3965C125.322 7.64363 121.456 3.77734 116.703 3.77734H55.2577C50.5047 3.77734 46.6396 7.64372 46.6396 12.3965V18.3692Z" fill="#ffffff" stroke="white"/>
<path id="Vector_5" d="M79.4912 133.455C79.4912 129.965 82.3317 127.125 85.8216 127.125C89.3115 127.125 92.152 129.965 92.152 133.455C92.152 136.946 89.3116 139.786 85.8216 139.786C82.3316 139.786 79.4912 136.946 79.4912 133.455ZM82.7686 133.455C82.7686 135.139 84.1375 136.508 85.8216 136.508C87.5057 136.508 88.8746 135.139 88.8746 133.455C88.8746 131.771 87.5057 130.402 85.8216 130.402C84.1375 130.402 82.7686 131.771 82.7686 133.455Z" fill="#ffffff" stroke="white"/>
<path id="Vector_6" d="M81.334 10.7656H89.6726C90.5772 10.7656 91.3112 11.4997 91.3112 12.4043C91.3112 13.3089 90.5772 14.043 89.6726 14.043H81.334C80.4285 14.043 79.6953 13.309 79.6953 12.4043C79.6953 11.4995 80.4285 10.7656 81.334 10.7656Z" fill="#ffffff" stroke="white"/>
<path id="Vector_7" d="M98.8151 10.7789L98.815 10.7789L96.2519 10.7522H96.2519H96.2518H96.2518H96.2517H96.2517H96.2516H96.2516H96.2516H96.2515H96.2515H96.2514H96.2514H96.2513H96.2513H96.2512H96.2512H96.2511H96.2511H96.2511H96.251H96.251H96.2509H96.2509H96.2508H96.2508H96.2507H96.2507H96.2506H96.2506H96.2506H96.2505H96.2505H96.2504H96.2504H96.2503H96.2503H96.2502H96.2502H96.2501H96.2501H96.25H96.25H96.25H96.2499H96.2499H96.2498H96.2498H96.2497H96.2497H96.2496H96.2496H96.2495H96.2495H96.2495H96.2494H96.2494H96.2493H96.2493H96.2492H96.2492H96.2491H96.2491H96.249H96.249H96.249H96.2489H96.2489H96.2488H96.2488H96.2487H96.2487H96.2486H96.2486H96.2485H96.2485H96.2484H96.2484H96.2484H96.2483H96.2483H96.2482H96.2482H96.2481H96.2481H96.248H96.248H96.2479H96.2479H96.2479H96.2478H96.2478H96.2477H96.2477H96.2476H96.2476H96.2475H96.2475H96.2474H96.2474H96.2474H96.2473H96.2473H96.2472H96.2472H96.2471H96.2471H96.247H96.247H96.2469H96.2469H96.2469H96.2468H96.2468H96.2467H96.2467H96.2466H96.2466H96.2465H96.2465H96.2464H96.2464H96.2463H96.2463H96.2463H96.2462H96.2462H96.2461H96.2461H96.246H96.246H96.2459H96.2459H96.2458H96.2458H96.2458H96.2457H96.2457H96.2456H96.2456H96.2455H96.2455H96.2454H96.2454H96.2453H96.2453H96.2453H96.2452H96.2452H96.2451H96.2451H96.245H96.245H96.2449H96.2449H96.2448H96.2448H96.2447H96.2447H96.2447H96.2446H96.2446H96.2445H96.2445H96.2444H96.2444H96.2443H96.2443H96.2442H96.2442H96.2442H96.2441H96.2441H96.244H96.244H96.2439H96.2439H96.2438H96.2438H96.2437H96.2437H96.2437H96.2436H96.2436H96.2435H96.2435H96.2434H96.2434H96.2433H96.2433H96.2432H96.2432H96.2431H96.2431H96.2431H96.243H96.243H96.2429H96.2429H96.2428H96.2428H96.2427H96.2427H96.2426H96.2426H96.2426H96.2425H96.2425H96.2424H96.2424H96.2423H96.2423H96.2422H96.2422H96.2421H96.2421H96.2421H96.242H96.242H96.2419H96.2419H96.2418H96.2418H96.2417H96.2417H96.2416H96.2416H96.2416H96.2415H96.2415H96.2414H96.2414H96.2413H96.2413H96.2412H96.2412H96.2411H96.2411H96.241H96.241H96.241H96.2409H96.2409H96.2408H96.2408H96.2407H96.2407H96.2406H96.2406H96.2405H96.2405H96.2405H96.2404H96.2404H96.2403H96.2403H96.2402H96.2402H96.2401H96.2401H96.24H96.24H96.24H96.2399H96.2399H96.2398H96.2398H96.2397H96.2397H96.2396H96.2396H96.2395H96.2395H96.2394H96.2394H96.2394H96.2393H96.2393H96.2392H96.2392H96.2391H96.2391H96.239H96.239H96.2389H96.2389H96.2389H96.2388H96.2388H96.2387H96.2387H96.2386H96.2386H96.2385H96.2385H96.2384H96.2384H96.2384H96.2383H96.2383H96.2382H96.2382H96.2381H96.2381H96.238H96.238H96.2379H96.2379H96.2379H96.2378H96.2378H96.2377H96.2377H96.2376H96.2376H96.2375H96.2375H96.2374H96.2374H96.2373H96.2373H96.2373H96.2372H96.2372H96.2371H96.2371H96.237H96.237H96.2369H96.2369H96.2368H96.2368H96.2368H96.2367H96.2367H96.2366H96.2366H96.2365H96.2365H96.2364H96.2364H96.2363H96.2363H96.2363H96.2362H96.2362H96.2361H96.2361H96.236H96.236H96.2359H96.2359H96.2358H96.2358H96.2357H96.2357H96.2357H96.2356H96.2356H96.2355H96.2355H96.2354H96.2354H96.2353H96.2353H96.2352H96.2352H96.2352H96.2351H96.2351H96.235H96.235H96.2349H96.2349H96.2348H96.2348H96.2347H96.2347H96.2347H96.2346H96.2346H96.2345H96.2345H96.2344H96.2344H96.2343H96.2343H96.2342H96.2342H96.2341H96.2341H96.2341H96.234H96.234H96.2339H96.2339H96.2338H96.2338H96.2337H96.2337H96.2336H96.2336H96.2336H96.2335H96.2335H96.2334H96.2334H96.2333H96.2333H96.2332H96.2332H96.2331H96.2331H96.2331H96.233H96.233H96.2329H96.2329H96.2328H96.2328H96.2327H96.2327H96.2326H96.2326H96.2326H96.2325H96.2325H96.2324H96.2324H96.2323H96.2323H96.2322H96.2322H96.2321H96.2321H96.232H96.232H96.232H96.2319H96.2319H96.2318H96.2318H96.2317H96.2317H96.2316H96.2316H96.2315H96.2315H96.2315H96.2314H96.2314H96.2313H96.2313H96.2312H96.2312H96.2311H96.2311H96.231H96.231H96.231H96.2309H96.2309H96.2308H96.2308H96.2307H96.2307H96.2306H96.2306H96.2305H96.2305H96.2304C95.334 10.7522 94.6023 11.4748 94.5929 12.3749L98.8151 10.7789ZM98.8151 10.7789C99.7198 10.7883 100.446 11.5291 100.437 12.4347L98.8151 10.7789ZM96.2145 14.0296L96.2145 14.0296L98.7783 14.0563H98.798C99.6949 14.0563 100.427 13.3332 100.437 12.4347L96.2145 14.0296ZM96.2145 14.0296C95.3087 14.0202 94.5835 13.2794 94.5929 12.3749L96.2145 14.0296Z" fill="#ffffff" stroke="white"/>
<path id="Vector_8" d="M71.3526 12.426C71.3474 11.5179 72.0806 10.771 72.9825 10.7656C73.8934 10.7624 74.6241 11.4815 74.6299 12.3813V12.4065H74.6299L74.6299 12.4094C74.635 13.3131 73.9064 14.0505 73.0009 14.0564H72.9912C72.0901 14.0564 71.3577 13.3285 71.3526 12.426ZM71.3526 12.426L70.8526 12.4288M71.3526 12.426L70.8526 12.4288M70.8526 12.4288C70.8593 13.6062 71.815 14.5564 72.9912 14.5564H73.0024L75.1299 12.3798C75.1232 11.1991 74.1631 10.2612 72.9801 10.2656C71.7983 10.2723 70.8459 11.2481 70.8526 12.4288Z" fill="#ffffff" stroke="white"/>
<path id="Vector_9" d="M65.4463 67.3103H59.6797C58.7751 67.3103 58.041 66.5762 58.041 65.6716C58.041 64.7661 58.7749 64.033 59.6797 64.033H65.4463C66.3511 64.033 67.085 64.7661 67.085 65.6716C67.085 66.5762 66.3509 67.3103 65.4463 67.3103Z" fill="#ffffff" stroke="white"/>
<path id="Vector_10" d="M100.235 67.3103C99.3298 67.3103 98.5967 66.5764 98.5967 65.6716C98.5967 64.7659 99.3297 64.033 100.235 64.033H112.876C113.781 64.033 114.514 64.7661 114.514 65.6716C114.514 66.5762 113.78 67.3103 112.876 67.3103H100.235Z" fill="#ffffff" stroke="white"/>
</g>
</svg>
